X:1
T:Title
%%score { ( 1 3 ) | ( 2 4 ) }
L:1/8
M:3/4
K:F
V:1 treble nm="Grand Piano"
V:3 treble 
V:2 bass 
V:4 bass 
V:1
 z2 z2[Q:1/4=108] F2 | A2 A2 A2 | A4 GF | c2 c3 d | c4 d2 | d2 c2 A2 | B4 [Gc][GB] | A2 B3 A | %8
 [EG]4 F2 | A2 A2 A2 | [EG]4 [EG][FA] | [GB]2 [Ac]3 [GB] | A4 d2 | c2 A2 d2 | c2 A2 c2 | %15
 c2 c2 [D=B]2 | [Ec]6 | c2 c2 c2 | c4 z G | A2 A2 A2 | A4 d2 | c2 A2 d2 | c2 A2 F-[DFG] | %23
 .[CFA]2 .[CFA]2 .[B,EG]2 |[M:2/4] [A,F]4 |] %25
V:2
 z2 z2 [F,A,]2 | [F,CF]2 [F,CF]2 [F,CF]2 | [F,CF]4 [F,B,E][F,A,] | [F,A,F]2 [F,A,F]3 [F,B,F] | %4
 [F,A,F]4 [F,B,F]2 | [F,B,F]2 [F,A,F]2 [F,CF]2 | [F,DF]4 [E,C][E,C] | [F,CF]2 [F,DF]3 [F,CF] | %8
 [C,C]4 [F,A,]2 | [F,CF]2 [F,CF]2 [F,CF]2 | [C,C]4 [C,C][C,C] | [C,C]2 [C,C]3 [C,C] | %12
 [F,CF]4 [F,B,F]2 | [F,A,F]2 [F,CF]2 [F,B,F]2 | [F,A,F]2 [F,CF]2 [F,A,F]2 | %15
 [G,E]2 [G,E]2 [G,,G,]2 | [C,G,]6 | [F,A,F]2 [F,A,F]2 [F,A,F]2 | [F,A,F]4 A,B, | %19
 [F,CF]2 [F,CF]2 [F,CF]2 | [F,CF]4 [F,B,F]2 | [F,A,F]2 [F,CF]2 [F,B,F]2 | [F,A,F]2 [F,CF]2 A,,B,, | %23
 .C,2 .C,2 .C,2 |[M:2/4] F,4 |] %25
V:3
 x6 | x6 | x6 | x6 | x6 | x6 | x6 | x6 | x6 | x6 | x6 | x6 | x6 | x6 | x6 | x6 | x6 | x6 | %18
 z2 z2 F2 | x6 | x6 | x6 | z2 z2 .C2 | x6 |[M:2/4] x4 |] %25
V:4
 x6 | x6 | x6 | x6 | x6 | x6 | x6 | x6 | x6 | x6 | x6 | x6 | x6 | x6 | x6 | x6 | x6 | x6 | %18
 z2 z2 F,2 | x6 | x6 | x6 | x6 | x6 |[M:2/4] x4 |] %25

